build/img/3d-square.svg

<svg width="24" height="24" viewBox="0 0 24 24" fill="none" xmlns="http://www.w3.org/2000/svg">
<path d="M15 22.75H9C3.57 22.75 1.25 20.43 1.25 15V9C1.25 3.57 3.57 1.25 9 1.25H15C20.43 1.25 22.75 3.57 22.75 9V15C22.75 20.43 20.43 22.75 15 22.75ZM9 2.75C4.39 2.75 2.75 4.39 2.75 9V15C2.75 19.61 4.39 21.25 9 21.25H15C19.61 21.25 21.25 19.61 21.25 15V9C21.25 4.39 19.61 2.75 15 2.75H9Z" fill="#9197B3"/>
<path d="M12.0006 13.0797C11.8706 13.0797 11.7406 13.0497 11.6206 12.9797L6.32061 9.9197C5.96061 9.7097 5.84059 9.2497 6.05059 8.8997C6.26059 8.5397 6.72061 8.4197 7.07061 8.6297L11.9906 11.4797L16.8806 8.6497C17.2406 8.4397 17.7006 8.5697 17.9006 8.9197C18.1006 9.2697 17.9806 9.7397 17.6306 9.9397L12.3706 12.9797C12.2606 13.0397 12.1306 13.0797 12.0006 13.0797Z" fill="#9197B3"/>
<path d="M12 18.5201C11.59 18.5201 11.25 18.1801 11.25 17.7701V12.3301C11.25 11.9201 11.59 11.5801 12 11.5801C12.41 11.5801 12.75 11.9201 12.75 12.3301V17.7701C12.75 18.1801 12.41 18.5201 12 18.5201Z" fill="#9197B3"/>
<path d="M12.0002 18.7498C11.4202 18.7498 10.8503 18.6198 10.3903 18.3698L7.19025 16.5898C6.23025 16.0598 5.49023 14.7898 5.49023 13.6898V10.2998C5.49023 9.20981 6.24025 7.9398 7.19025 7.3998L10.3903 5.6198C11.3103 5.1098 12.6902 5.1098 13.6102 5.6198L16.8102 7.3998C17.7702 7.9298 18.5103 9.19981 18.5103 10.2998V13.6898C18.5103 14.7798 17.7602 16.0498 16.8102 16.5898L13.6102 18.3698C13.1502 18.6298 12.5802 18.7498 12.0002 18.7498ZM12.0002 6.7498C11.6702 6.7498 11.3502 6.8098 11.1202 6.9398L7.92026 8.7198C7.43026 8.9898 6.99023 9.7498 6.99023 10.2998V13.6898C6.99023 14.2498 7.43026 14.9998 7.92026 15.2698L11.1202 17.0498C11.5802 17.3098 12.4202 17.3098 12.8802 17.0498L16.0802 15.2698C16.5702 14.9998 17.0103 14.2398 17.0103 13.6898V10.2998C17.0103 9.73981 16.5702 8.9898 16.0802 8.7198L12.8802 6.9398C12.6502 6.8098 12.3302 6.7498 12.0002 6.7498Z" fill="#9197B3"/>
</svg>

<svg width="24" height="24" fill="none" xmlns="http://www.w3.org/2000/svg"><path d="M15 22.75H9c-5.43 0-7.75-2.32-7.75-7.75V9c0-5.43 2.32-7.75 7.75-7.75h6c5.43 0 7.75 2.32 7.75 7.75v6c0 5.43-2.32 7.75-7.75 7.75Zm-6-20C4.39 2.75 2.75 4.39 2.75 9v6c0 4.61 1.64 6.25 6.25 6.25h6c4.61 0 6.25-1.64 6.25-6.25V9c0-4.61-1.64-6.25-6.25-6.25H9Z" fill="#9197B3"/><path d="M12 13.08c-.13 0-.26-.03-.38-.1l-5.3-3.06a.742.742 0 0 1-.27-1.02c.21-.36.67-.48 1.02-.27l4.92 2.85 4.89-2.83c.36-.21.82-.08 1.02.27.2.35.08.82-.27 1.02l-5.26 3.04c-.11.06-.24.1-.37.1Z" fill="#9197B3"/><path d="M12 18.52c-.41 0-.75-.34-.75-.75v-5.44c0-.41.34-.75.75-.75s.75.34.75.75v5.44c0 .41-.34.75-.75.75Z" fill="#9197B3"/><path d="M12 18.75c-.58 0-1.15-.13-1.61-.38l-3.2-1.78c-.96-.53-1.7-1.8-1.7-2.9V10.3c0-1.09.75-2.36 1.7-2.9l3.2-1.78c.92-.51 2.3-.51 3.22 0l3.2 1.78c.96.53 1.7 1.8 1.7 2.9v3.39c0 1.09-.75 2.36-1.7 2.9l-3.2 1.78c-.46.26-1.03.38-1.61.38Zm0-12c-.33 0-.65.06-.88.19l-3.2 1.78c-.49.27-.93 1.03-.93 1.58v3.39c0 .56.44 1.31.93 1.58l3.2 1.78c.46.26 1.3.26 1.76 0l3.2-1.78c.49-.27.93-1.03.93-1.58V10.3c0-.56-.44-1.31-.93-1.58l-3.2-1.78c-.23-.13-.55-.19-.88-.19Z" fill="#9197B3"/></svg>
